X:1
T:Title
%%score { ( 1 3 ) | ( 2 4 ) }
L:1/8
M:6/8
K:G
V:1 treble nm="Grand Piano"
V:3 treble 
V:2 treble 
V:4 treble 
V:1
 z3 z2[Q:1/4=90] D | z d2- d2 z | z d2- d2 z | d>ed dBG |[M:5/8] G[GA][GB] [FA]2 |[M:1/8] D | %6
[M:3/4] z d- d3 z | z d- d3 z | [B,DG][DGd] [EGc][DGB] [B,DG][CDA] | %9
[M:5/8] [G,B,DG]-[G,B,DG]- [G,B,DG]3 |] %10
V:2
 z3 z2 [G,B,] | [G,B,D][B,G]C D<B,[G,B,] | [G,B,D][B,G]C D<B,[G,DG] | %3
 [G,B,G]>[G,CG][G,B,G] [G,B,G][G,DG][K:bass][G,B,] |[M:5/8] [E,^C][E,C][A,C] [D,D]2 | %5
[M:1/8] [F,C] |[M:3/4][K:treble] [G,B,D][B,G] CD/B,/- B,[G,B,] | %7
 [G,B,D][B,G] CD/[K:bass]B,/- B,G, | G,B,, C,D, D,D, |[M:5/8] G,,-G,,- G,,3 |] %10
V:3
 x6 | .G2 B B<GD | .G2 A B<GB | x6 |[M:5/8] x5 |[M:1/8] x |[M:3/4] .G2 AB/G/- GD | %7
 .G2 AB/G/- G[B,D] | x6 |[M:5/8] x5 |] %10
V:4
 x6 | z G,2- G,2 z | z G,2- G,2 z | x5[K:bass] x |[M:5/8] x5 |[M:1/8] x | %6
[M:3/4][K:treble] z G,- G,3 z | z G,- G,3[K:bass] z | x6 |[M:5/8] x5 |] %10

